symbols/web/mms/materialsymbolssharp/mms_wght200grad200_40px.svg

<svg xmlns="http://www.w3.org/2000/svg" height="40" width="40"><path d="M12.292 22.125h16l-5.084-6.708-4.458 5.708-3-3.5Zm-8.167 12.5V3.792h31.75v25H9.958Zm2.125-5.208 2.792-2.792H33.75V5.917H6.25Zm0 0v-23.5 20.708Z"/></svg>

<svg xmlns="http://www.w3.org/2000/svg" height="40" width="40"><path d="M12.292 22.125H28.292L23.208 15.417L18.75 21.125L15.75 17.625ZM4.125 34.625V3.792H35.875V28.792H9.958ZM6.25 29.417 9.042 26.625H33.75V5.917H6.25ZM6.25 29.417V5.917V26.625Z"/></svg>
